X:260
T:Mayday
C:Martin Hanley
L:1/8
M:C
O:Australia 
R:Reel
Z:Peter Dwyer 
%%Copyright:Martin Hanley
%%TUNEURL: http://www.leeds.ac.uk/music/Info/RRTuneBk/gettune/00000638.html
%%ID:00000638
K:G
|: DG ~G2 BG ~G2| cGBG AGEG| DEGA Be e2| dBAB GEDE|
DG ~G2 BG ~G2| cGBG AGEG| g2 gd egdB| cAFA DF G2:|
|: g2 gb ageg| dg ~g2 dedc| AG G2 eBdB| cABG AGEG|
DG ~G2 eBdB| g2 bg ag eg| dg g2 dedc| cAFA G4:|
